static/svg/index/globe-solid.svg

<?xml version="1.0" encoding="UTF-8"?>
<svg xmlns="http://www.w3.org/2000/svg" xmlns:xlink="http://www.w3.org/1999/xlink" width="16px" height="16px" viewBox="0 0 16 16" version="1.1">
<g id="surface1">
<path style=" stroke:none;fill-rule:nonzero;fill:rgb(0%,0%,0%);fill-opacity:1;" d="M 11 8 C 11 8.695312 10.960938 9.363281 10.898438 10 L 5.105469 10 C 5.039062 9.363281 5.003906 8.695312 5.003906 8 C 5.003906 7.304688 5.039062 6.636719 5.105469 6 L 10.898438 6 C 10.964844 6.636719 11 7.304688 11 8 Z M 11.898438 6 L 15.746094 6 C 15.914062 6.640625 16 7.308594 16 8 C 16 8.691406 15.914062 9.359375 15.746094 10 L 11.898438 10 C 11.964844 9.355469 12 8.6875 12 8 C 12 7.3125 11.964844 6.644531 11.898438 6 Z M 15.417969 5 L 11.773438 5 C 11.460938 3.003906 10.839844 1.332031 10.042969 0.261719 C 12.492188 0.910156 14.480469 2.683594 15.414062 5 Z M 10.757812 5 L 5.242188 5 C 5.429688 3.863281 5.726562 2.855469 6.085938 2.039062 C 6.414062 1.304688 6.777344 0.769531 7.132812 0.429688 C 7.480469 0.101562 7.773438 0 8 0 C 8.226562 0 8.519531 0.101562 8.867188 0.429688 C 9.222656 0.769531 9.585938 1.304688 9.914062 2.039062 C 10.277344 2.851562 10.570312 3.859375 10.757812 5 Z M 4.226562 5 L 0.582031 5 C 1.519531 2.683594 3.507812 0.910156 5.957031 0.261719 C 5.160156 1.332031 4.539062 3.003906 4.226562 5 Z M 0.253906 6 L 4.101562 6 C 4.035156 6.644531 4 7.3125 4 8 C 4 8.6875 4.035156 9.355469 4.101562 10 L 0.253906 10 C 0.0859375 9.359375 0 8.691406 0 8 C 0 7.308594 0.0859375 6.640625 0.253906 6 Z M 6.085938 13.957031 C 5.722656 13.144531 5.429688 12.136719 5.242188 11 L 10.757812 11 C 10.570312 12.136719 10.273438 13.144531 9.914062 13.957031 C 9.585938 14.695312 9.222656 15.226562 8.867188 15.566406 C 8.519531 15.898438 8.226562 16 8 16 C 7.773438 16 7.480469 15.898438 7.132812 15.570312 C 6.777344 15.230469 6.414062 14.695312 6.085938 13.960938 Z M 4.226562 11 C 4.539062 12.996094 5.160156 14.667969 5.957031 15.738281 C 3.507812 15.089844 1.519531 13.316406 0.582031 11 Z M 15.417969 11 C 14.480469 13.316406 12.492188 15.089844 10.046875 15.738281 C 10.84375 14.667969 11.460938 12.996094 11.773438 11 L 15.421875 11 Z M 15.417969 11 "/>
</g>
</svg>

<svg xmlns="http://www.w3.org/2000/svg" width="16" height="16" viewBox="0 0 16 16"><path style="stroke:none;fill-rule:nonzero;fill:#1C5BFF;fill-opacity:1" d="M11 8c0 .695-.04 1.363-.102 2H5.105a19 19 0 0 1-.101-2q.001-1.043.101-2h5.793Q11 6.957 11 8m.898-2h3.848Q16 6.962 16 8q-.001 1.038-.254 2h-3.848a19.5 19.5 0 0 0 0-4m3.52-1h-3.645c-.312-1.996-.933-3.668-1.73-4.738A8.01 8.01 0 0 1 15.414 5Zm-4.66 0H5.242c.188-1.137.485-2.145.844-2.96.328-.735.691-1.27 1.047-1.61C7.48.102 7.773 0 8 0s.52.102.867.43c.356.34.719.875 1.047 1.61.363.812.656 1.82.844 2.96M4.227 5H.582A8.03 8.03 0 0 1 5.957.262C5.16 1.332 4.539 3.004 4.227 5M.254 6h3.848a19.5 19.5 0 0 0 0 4H.254A8 8 0 0 1 0 8q.001-1.038.254-2m5.832 7.957c-.363-.812-.656-1.82-.844-2.957h5.516c-.188 1.137-.485 2.145-.844 2.957-.328.738-.691 1.27-1.047 1.61-.347.331-.64.433-.867.433s-.52-.102-.867-.43c-.356-.34-.719-.875-1.047-1.61ZM4.226 11c.313 1.996.934 3.668 1.731 4.738A8.03 8.03 0 0 1 .582 11Zm11.192 0a8.03 8.03 0 0 1-5.371 4.738c.797-1.07 1.414-2.742 1.726-4.738h3.649Zm0 0"/></svg>
